public/icons/link.svg

<svg width="18" height="18" viewBox="0 0 20 20" fill="none" xmlns="http://www.w3.org/2000/svg">
  <path d="M8 15.5501L6.23 17.2701C5.76587 17.7342 5.13638 17.995 4.48 17.995C3.82363 17.995 3.19413 17.7342 2.73 17.2701C2.26588 16.806 2.00513 16.1765 2.00513 15.5201C2.00513 14.8637 2.26588 14.2342 2.73 13.7701L7.27 9.22009C7.71562 8.77304 8.31603 8.51437 8.94702 8.49762C9.57801 8.48087 10.1913 8.70731 10.66 9.13009L10.78 9.23009C10.9696 9.41575 11.2252 9.51846 11.4906 9.51565C11.756 9.51284 12.0094 9.40472 12.195 9.21509C12.3807 9.02546 12.4834 8.76985 12.4806 8.50449C12.4777 8.23912 12.3696 7.98575 12.18 7.80009C12.1236 7.72712 12.0635 7.65703 12 7.59009C11.1464 6.84741 10.0423 6.45694 8.91157 6.49779C7.78081 6.53864 6.70784 7.00775 5.91 7.81009L1.31 12.3601C0.528361 13.2109 0.105625 14.3308 0.130079 15.4858C0.154533 16.6409 0.624286 17.7419 1.44124 18.5589C2.25819 19.3758 3.35917 19.8456 4.51425 19.87C5.66934 19.8945 6.78921 19.4717 7.64 18.6901L9.37 17.0001C9.54082 16.8137 9.63472 16.5696 9.63281 16.3168C9.6309 16.064 9.53333 15.8214 9.35972 15.6376C9.1861 15.4539 8.94934 15.3427 8.69707 15.3264C8.4448 15.3102 8.19574 15.3901 8 15.5501V15.5501ZM18.69 1.31009C17.8488 0.474102 16.711 0.00488281 15.525 0.00488281C14.339 0.00488281 13.2012 0.474102 12.36 1.31009L10.63 3.00009C10.4592 3.18644 10.3653 3.43057 10.3672 3.68336C10.3691 3.93615 10.4667 4.17883 10.6403 4.36258C10.8139 4.54633 11.0507 4.65751 11.3029 4.67375C11.5552 4.68998 11.8043 4.61007 12 4.45009L13.73 2.73009C14.1941 2.26597 14.8236 2.00522 15.48 2.00522C16.1364 2.00522 16.7659 2.26597 17.23 2.73009C17.6941 3.19422 17.9549 3.82372 17.9549 4.48009C17.9549 5.13647 17.6941 5.76597 17.23 6.23009L12.69 10.7801C12.2444 11.2272 11.644 11.4858 11.013 11.5026C10.382 11.5193 9.76871 11.2929 9.3 10.8701L9.18001 10.7701C8.99038 10.5844 8.73476 10.4817 8.4694 10.4845C8.20403 10.4874 7.95066 10.5955 7.765 10.7851C7.57935 10.9747 7.47663 11.2303 7.47945 11.4957C7.48226 11.7611 7.59037 12.0144 7.78 12.2001C7.85264 12.2744 7.92943 12.3445 8.01 12.4101C8.86468 13.1505 9.96823 13.5395 11.0983 13.4987C12.2284 13.4579 13.301 12.9903 14.1 12.1901L18.65 7.64009C19.4913 6.80417 19.9678 5.66932 19.9753 4.48334C19.9827 3.29736 19.5207 2.15659 18.69 1.31009V1.31009Z" fill="none"/>
</svg>

<svg xmlns="http://www.w3.org/2000/svg" width="18" height="18" fill="none" viewBox="0 0 20 20"><path d="m8 15.55-1.77 1.72a2.475 2.475 0 0 1-3.5-3.5l4.54-4.55a2.46 2.46 0 0 1 3.39-.09l.12.1a1 1 0 1 0 1.4-1.43 2.74 2.74 0 0 0-.18-.21 4.46 4.46 0 0 0-6.09.22l-4.6 4.55a4.48 4.48 0 0 0 6.33 6.33L9.37 17A1 1 0 0 0 8 15.55ZM18.69 1.31a4.49 4.49 0 0 0-6.33 0L10.63 3A1 1 0 0 0 12 4.45l1.73-1.72a2.475 2.475 0 1 1 3.5 3.5l-4.54 4.55a2.46 2.46 0 0 1-3.39.09l-.12-.1a1 1 0 1 0-1.4 1.43c.073.074.15.145.23.21a4.47 4.47 0 0 0 6.09-.22l4.55-4.55a4.49 4.49 0 0 0 .04-6.33Z"/></svg>
